app/assets/v2/images/mission/value/humble.svg

<svg viewBox="0 0 52.08 52.08" xmlns="http://www.w3.org/2000/svg"><g fill="#180041"><path d="m26 0a26 26 0 1 0 26 26 26.07 26.07 0 0 0 -26-26zm0 49.57a23.53 23.53 0 0 1 0-47.06 23.53 23.53 0 0 1 0 47.06z"/><path d="m26 42.2a16.4 16.4 0 0 0 12.82-6.3l-2-1.51a13.81 13.81 0 0 1 -2.65 2.61 13.73 13.73 0 0 1 -19-2.61l-2 1.51a16.42 16.42 0 0 0 12.83 6.3zm-13.88-18-1.79 1.8a9.41 9.41 0 0 0 6.35 2.49h.05a9.37 9.37 0 0 0 6.35-2.49l-1.78-1.8a6.92 6.92 0 0 1 -9.18 0zm18.71.05-1.78 1.75a9.38 9.38 0 0 0 6.37 2.46h.06a9.42 9.42 0 0 0 6.33-2.46l-1.81-1.75a6.9 6.9 0 0 1 -9.17 0z"/></g></svg>

<svg xmlns="http://www.w3.org/2000/svg" viewBox="0 0 52.08 52.08"><defs><style>.cls-1{fill:#180041}</style></defs><g id="Layer_2" data-name="Layer 2"><g id="Layer_2-2" data-name="Layer 2"><path class="cls-1" d="M26 0a26 26 0 1 0 26 26A26.07 26.07 0 0 0 26 0zm0 49.57a23.53 23.53 0 0 1 0-47.06 23.53 23.53 0 0 1 0 47.06z"/><path class="cls-1" d="M26 42.2a16.4 16.4 0 0 0 12.82-6.3l-2-1.51A13.81 13.81 0 0 1 34.17 37a13.73 13.73 0 0 1-19-2.61l-2 1.51A16.42 16.42 0 0 0 26 42.2zM12.12 24.2L10.33 26a9.41 9.41 0 0 0 6.35 2.49h.05A9.37 9.37 0 0 0 23.08 26l-1.78-1.8a6.92 6.92 0 0 1-9.18 0zM30.83 24.25L29.05 26a9.38 9.38 0 0 0 6.37 2.46h.06A9.42 9.42 0 0 0 41.81 26L40 24.25a6.9 6.9 0 0 1-9.17 0z"/></g></g></svg>
